X:14
T:Doonagore
M:C|
R:reel
C:Traditional
K:G
DG G2 FGAc | BG G2 ABcA | d2 cA BGFG | AdcA BGAF |
DG G2 FGAc | BG G2 ABcA | d2 cA BGFG |[1 AdcA G2 GE :|[2 AdcA GBde |]
|: g2 ge fdde | fdgd fdde | g2 ge fdd^c | defd gdef |
gbag fddc | BG G2 ABcA | d2 cA BGFG |[1 AdcA GBde :|[2 AdcA G2 GE |]


